src/icons/svgs/16/bars-sort-down.svg

<svg width="16" height="16" viewBox="0 0 16 16" fill="none" xmlns="http://www.w3.org/2000/svg">
<path d="M9.71429 7.16667H2.83304C2.38384 7.16667 2 7.53906 2 7.97656C2 8.41406 2.38384 8.83333 2.83304 8.83333H9.69018C10.1884 8.83333 10.5714 8.46094 10.5714 8C10.5714 7.53906 10.1884 7.16667 9.71429 7.16667ZM6.28571 11.3333H2.83304C2.38384 11.3333 2 11.7057 2 12.1432C2 12.5807 2.38384 13 2.83304 13H6.28571C6.75982 13 7.14286 12.6276 7.14286 12.1667C7.14286 11.7057 6.75982 11.3333 6.28571 11.3333ZM13.1429 3H2.83304C2.38384 3 2 3.37318 2 3.8099C2 4.24661 2.38384 4.66667 2.83304 4.66667H13.1188C13.617 4.66667 14 4.29427 14 3.83333C14 3.3724 13.617 3 13.1429 3Z" fill="black"/>
</svg>

<svg width="16" height="16" viewBox="0 0 16 16" xmlns="http://www.w3.org/2000/svg">
    <path d="M9.714 7.167H2.833c-.45 0-.833.372-.833.81 0 .437.384.856.833.856H9.69c.498 0 .881-.372.881-.833a.845.845 0 0 0-.857-.833Zm-3.428 4.166H2.833c-.45 0-.833.373-.833.81 0 .438.384.857.833.857h3.453a.845.845 0 0 0 .857-.833.845.845 0 0 0-.857-.834ZM13.143 3H2.833C2.383 3 2 3.373 2 3.81c0 .437.384.857.833.857h10.286c.498 0 .881-.373.881-.834A.845.845 0 0 0 13.143 3Z"/>
</svg>
